packages/icons/raw/imported/MediaNoVolume.svg

<svg width="32" height="32" viewBox="0 0 32 32" fill="none" xmlns="http://www.w3.org/2000/svg">
<path d="M16.2762 7.08629L16.6189 7.45039V7.45039L16.2762 7.08629ZM16.2762 24.9138L15.9335 25.2779L15.9335 25.2779L16.2762 24.9138ZM21.1036 13.584C20.9083 13.3887 20.5917 13.3887 20.3964 13.584C20.2012 13.7793 20.2012 14.0958 20.3964 14.2911L21.1036 13.584ZM24.5214 18.4161C24.7167 18.6114 25.0333 18.6114 25.2286 18.4161C25.4238 18.2208 25.4238 17.9043 25.2286 17.709L24.5214 18.4161ZM25.2286 14.2911C25.4238 14.0958 25.4238 13.7793 25.2286 13.584C25.0333 13.3887 24.7167 13.3887 24.5214 13.584L25.2286 14.2911ZM20.3964 17.709C20.2012 17.9043 20.2012 18.2208 20.3964 18.4161C20.5917 18.6114 20.9083 18.6114 21.1036 18.4161L20.3964 17.709ZM8 17.7307V14.2693H7V17.7307H8ZM9.5 12.7693H9.97608V11.7693H9.5V12.7693ZM9.97608 19.2307H9.5V20.2307H9.97608V19.2307ZM7 17.7307C7 19.1114 8.11929 20.2307 9.5 20.2307V19.2307C8.67157 19.2307 8 18.5592 8 17.7307H7ZM8 14.2693C8 13.4409 8.67157 12.7693 9.5 12.7693V11.7693C8.11929 11.7693 7 12.8886 7 14.2693H8ZM11.6895 12.0898L16.6189 7.45039L15.9335 6.72219L11.0041 11.3616L11.6895 12.0898ZM17.4616 7.81449V24.1856H18.4616V7.81449H17.4616ZM16.6189 24.5497L11.6895 19.9102L11.0041 20.6384L15.9335 25.2779L16.6189 24.5497ZM17.4616 24.1856C17.4616 24.6238 16.938 24.85 16.6189 24.5497L15.9335 25.2779C16.8908 26.1789 18.4616 25.5002 18.4616 24.1856H17.4616ZM16.6189 7.45039C16.938 7.15007 17.4616 7.3763 17.4616 7.81449H18.4616C18.4616 6.49993 16.8908 5.82123 15.9335 6.72219L16.6189 7.45039ZM20.3964 14.2911L24.5214 18.4161L25.2286 17.709L21.1036 13.584L20.3964 14.2911ZM24.5214 13.584L20.3964 17.709L21.1036 18.4161L25.2286 14.2911L24.5214 13.584ZM9.97608 20.2307C10.3582 20.2307 10.7259 20.3766 11.0041 20.6384L11.6895 19.9102C11.2258 19.4738 10.6129 19.2307 9.97608 19.2307V20.2307ZM9.97608 12.7693C10.6129 12.7693 11.2258 12.5263 11.6895 12.0898L11.0041 11.3616C10.7259 11.6235 10.3582 11.7693 9.97608 11.7693V12.7693Z" fill="black"/>
</svg>

<svg width="32" height="32" fill="none" xmlns="http://www.w3.org/2000/svg"><path d="m16.276 7.086.343.364-.343-.364Zm0 17.828-.342.364.342-.364Zm4.828-11.33a.5.5 0 0 0-.708.707l.708-.707Zm3.417 4.832a.5.5 0 0 0 .708-.707l-.708.707Zm.708-4.125a.5.5 0 0 0-.708-.707l.708.707Zm-4.833 3.418a.5.5 0 0 0 .708.707l-.708-.707ZM8 17.731v-3.462H7v3.462h1Zm1.5-4.962h.476v-1H9.5v1Zm.476 6.462H9.5v1h.476v-1ZM7 17.73a2.5 2.5 0 0 0 2.5 2.5v-1a1.5 1.5 0 0 1-1.5-1.5H7Zm1-3.462a1.5 1.5 0 0 1 1.5-1.5v-1a2.5 2.5 0 0 0-2.5 2.5h1Zm3.69-2.18 4.929-4.639-.685-.728-4.93 4.64.686.728Zm5.772-4.275v16.372h1V7.814h-1Zm-.843 16.736-4.93-4.64-.685.728 4.93 4.64.685-.728Zm.843-.364a.5.5 0 0 1-.843.364l-.685.728c.957.9 2.528.222 2.528-1.092h-1ZM16.619 7.45a.5.5 0 0 1 .843.364h1c0-1.314-1.571-1.993-2.528-1.092l.685.728Zm3.777 6.841 4.125 4.125.708-.707-4.125-4.125-.708.707Zm4.125-.707-4.125 4.125.708.707 4.125-4.125-.708-.707ZM9.976 20.231a1.5 1.5 0 0 1 1.028.407l.686-.728a2.5 2.5 0 0 0-1.714-.68v1Zm0-7.462a2.5 2.5 0 0 0 1.713-.68l-.685-.727a1.5 1.5 0 0 1-1.028.407v1Z" fill="#000"/></svg>
